!!!COM: Johanna Kinkel
!!!CNT: Deutsch
!!!TXO: Deutsch
!!!OTL: Der Spanische Zitherknabe
!!!LYR: Geibel
!!!OPR: 6 Gedichte von E. Geibel
!!!OPS: Op. 8
!!!ONM: No. 1
!!!ENC: Ben Fuhrman
!!!YOR: Johanna Kinkel: Lieder, volume 1 Poetry by Geibel and Goethe
!!!YOR: Bryn Mawr, Fildegard Publishing CO, 2000
!!!ODT: 1838
!!NB: Only vocal melody encoded.
!!NB: First instance of melodic material only encoded.
!!created: 2/23/10 12:37PM
!!proofed and posted: 2/23/10 12:45PM
**kern	**silbe
*clef G2	*
*k[f#]	*
*M3/4	*
*MM[Allegretto, Tempo di Fandango]	*
=5	=5
{8.g	{Fern
16f#	im
8e	Su2d
16d#	das
16e	|
8f#	scho2-
8d#	-ne
=6	=6
(8.e	Spa-
16f#)	-ni-
4g}	-en}
4r	.
=7	=7
{8.b	{Spa-
16a	-nien
8g	ist
16a	mein
16b	|
16cc	Hei-
16dd	|
8cc	-math-
=8	=8
2b}	-land}
4r	.
=9	=9
{16b	{wo-
16cc	|
8b	die
16b	schat-
16cc	|
8b	-ti-
16a	-gen
16b	|
8a	Ka-
=10	=10
(8.g	-sta-
16a)	-ni-
4b}	-en}
4r	.
=11	=11
{16a	{rau-
16cc	|
8f#	-schen
16g	an-
16b	|
8e	-des
16f#	E-
16a	|
8d#	-bro
=12	=12
2e}	Strand.}
4r	.
!! Rest to measure 15
=15	=15
{8.e	{Wo
16fn	die
8g	Man
8cc	deln-
8b	-ro2th-
8cc	-lich
=16	=16
8.b	blu2-
16cc	|
4g}	-hen,}
4r	.
=17	=17
{8.e	{wo
16fn	die
8g	heis-
8cc	-se
16cc	Trau-
16b	|
16a	-be
16b	|
=18	=18
2cc}	winkt,}
{8cc	{und
8cc	die
=19	=19
4.ee-	Ro-
8a-	-sen
8a-	scho2-
8b-	-ner
=20	=20
8.cc	glu2-
16dd-	|
4cc}	-hen,}
{8cc	{und
8cc	das
=21	=21
4.een	Mond
16dd	-licht
16cc	-|
8dd	gold-
8b	-ner
=22	=22
2cc}	blinkt.}
4r	.
!! Rest to measure 27
=27	=27
{8.cc	{Und
16b	nun
8f#	wand'r
8g	ich
8a	mit
16g	der
16f#	|
=28	=28
8.g	Lau-
16f#	|
4e}	-te}
4r	.
=29	=29
{8.cc	{trau-
16cc	-rig
8cc	heir
8b	von
16b	Haus
16a	|
8g	zu
=30	=30
2f#}	Haus;}
4r	.
=31	=31
{8.f#	doch
16g#	kein
8f#	hel-
8b	-les
8a#	Au-
8cc#	-ge
=32	=32
8.a#	schau-
16b	|
4f#}	-te}
4r	.
=33	=33
{8d#	{freund-
16f#	-lich
16b	|
8dd#	noch
16ee	nach
16dd#	|
16dd#	mir
16cc#	|
16b	her-
16cc#	|
=34	=34
(4b	-aus;
2a)}	|}
=35	=35
{8.g#	{Spa2r-
16f#	-lich
8e	reicht
16d#	man
16e	|
8f#	mir
8d#	die
=36	=36
8.e	Ga-
16f#	|
8g#}	-ben,}
8r	.
4r	.
=37	=37
{8.b	{mu2r-
16a#	-risch
8g#	heis-
16f##	-set
16g#	|
8a#	man
8d#	mich
=38	=38
2b}	gehn;}
4r	.
=39	=39
{8b	{ach,
16cc#	den
16dd	|
8.cc#	ar-
16a	|
4f#	-men
=40	=40
8a	brau-
16b	-nen
16cc	|
8.b	Kna-
16gn	|
4e	-ben
=41	=41
(aq	mag
8.cc)	|
16f#	kein
(gq	Ein-
8.b)	|
16e	-zi-
(f#q	-ger
8.a)	|
16d#	ver-
=42	=42
2e}	-stehn.}
4r	.
==	==
*-	*-
